X: 1458
T: And That's That
R: reel
M: 4/4
K: Dmajor
f3f edBA|d2ef edef|gdB2- BABd|e2ef edef|
g3e f2af|edef edef|gefd B2dB|BAAB d4:|
|:g3e fbaf|feef edBd|e2BA Bdef|g2fd edef|
g3e f2af|edef edef|gefd B2dB|BAAB d4:|

